src/lib/packages/icons/src/assets/line/location-crosshairs-slash.svg

<svg width="24" height="24" viewBox="0 0 24 24" fill="none" xmlns="http://www.w3.org/2000/svg">
<path d="M21.75 12C21.75 12.414 21.414 12.75 21 12.75H19.712C19.357 16.426 16.426 19.3569 12.75 19.7119V21C12.75 21.414 12.414 21.75 12 21.75C11.586 21.75 11.25 21.414 11.25 21V19.7129C10.549 19.6449 9.86199 19.485 9.20099 19.23C8.81399 19.082 8.622 18.647 8.771 18.261C8.92 17.875 9.35399 17.6821 9.73999 17.8311C10.464 18.1101 11.224 18.251 12 18.251C15.446 18.251 18.25 15.447 18.25 12.001C18.25 11.225 18.109 10.464 17.83 9.74097C17.681 9.35397 17.873 8.91997 18.26 8.77197C18.644 8.62297 19.08 8.8149 19.229 9.2019C19.484 9.8639 19.645 10.551 19.712 11.251H21C21.414 11.25 21.75 11.586 21.75 12ZM3.53003 21.53C3.38403 21.676 3.192 21.75 3 21.75C2.808 21.75 2.61597 21.677 2.46997 21.53C2.17697 21.237 2.17697 20.762 2.46997 20.469L6.01501 16.9241C5.03101 15.7321 4.43301 14.289 4.28601 12.75H3C2.586 12.75 2.25 12.414 2.25 12C2.25 11.586 2.586 11.25 3 11.25H4.28802C4.64302 7.574 7.574 4.64309 11.25 4.28809V3C11.25 2.586 11.586 2.25 12 2.25C12.414 2.25 12.75 2.586 12.75 3V4.28711C14.289 4.43411 15.732 5.03111 16.924 6.01611L20.469 2.47095C20.762 2.17795 21.237 2.17795 21.53 2.47095C21.823 2.76395 21.823 3.23898 21.53 3.53198L3.53003 21.53ZM10.355 12.584L12.584 10.355C12.398 10.29 12.203 10.25 12 10.25C11.035 10.25 10.25 11.035 10.25 12C10.25 12.203 10.29 12.399 10.355 12.584ZM7.08502 15.855L9.23798 13.7019C8.92598 13.1949 8.75 12.613 8.75 12C8.75 10.208 10.208 8.75 12 8.75C12.613 8.75 13.195 8.92504 13.702 9.23804L15.855 7.08496C14.759 6.22196 13.417 5.75 12 5.75C8.554 5.75 5.75 8.554 5.75 12C5.75 13.417 6.22202 14.759 7.08502 15.855Z" fill="currentColor"/>
</svg>

<svg xmlns="http://www.w3.org/2000/svg" width="24" height="24" fill="none"><path fill="currentColor" d="M21.75 12a.75.75 0 0 1-.75.75h-1.288a7.76 7.76 0 0 1-6.962 6.962V21a.75.75 0 0 1-1.5 0v-1.287a7.762 7.762 0 0 1-2.049-.483.749.749 0 1 1 .539-1.399 6.257 6.257 0 0 0 8.09-8.09.75.75 0 0 1 1.399-.54c.255.663.416 1.35.483 2.05H21a.749.749 0 0 1 .75.749ZM3.53 21.53a.748.748 0 0 1-1.06 0 .75.75 0 0 1 0-1.061l3.545-3.545a7.68 7.68 0 0 1-1.729-4.174H3a.75.75 0 0 1 0-1.5h1.288a7.76 7.76 0 0 1 6.962-6.962V3a.75.75 0 0 1 1.5 0v1.287a7.672 7.672 0 0 1 4.174 1.73l3.545-3.546a.75.75 0 1 1 1.061 1.061l-18 17.998Zm6.825-8.946 2.229-2.229A1.765 1.765 0 0 0 12 10.25c-.965 0-1.75.785-1.75 1.75 0 .203.04.399.105.584Zm-3.27 3.271 2.153-2.153A3.236 3.236 0 0 1 8.75 12 3.254 3.254 0 0 1 12 8.75c.613 0 1.195.175 1.702.488l2.153-2.153A6.2 6.2 0 0 0 12 5.75 6.257 6.257 0 0 0 5.75 12a6.2 6.2 0 0 0 1.335 3.855Z"/></svg>
